X: 8056
T: Connie The Soldier
R: jig
M: 6/8
K: Dmajor
~a3 ABd|ABG Ead|efg efg|~A3 fed|
a2A ABd|ABG E2d|cBc ~A3|fdc d3:|
|:~f3 dAd|~f3 dAd|fed efd|cAG A3|
efg efg|~f3 e2d|cBc ABG|fdc d3:|

